Newaita-dark/apps/32/onionshare.svg

<svg height="32" viewBox="0 0 32 32" width="32" xmlns="http://www.w3.org/2000/svg" xmlns:xlink="http://www.w3.org/1999/xlink"><linearGradient id="a"><stop offset="0" stop-opacity=".313726"/><stop offset=".222222" stop-opacity=".27451"/><stop offset="1" stop-opacity="0"/></linearGradient><radialGradient id="b" cx="450.908936" cy="189.579361" gradientTransform="matrix(.00000017 -.0781325 -.140638 -.0000001 44.523152 63.595329)" gradientUnits="userSpaceOnUse" r="21.166656" xlink:href="#a"/><radialGradient id="c" cx="450.908936" cy="189.579361" gradientTransform="matrix(-.00000017 .0781325 .140638 .0000001 -12.770119 -7.527482)" gradientUnits="userSpaceOnUse" r="21.166656" xlink:href="#a"/><radialGradient id="d" cx="450.908936" cy="189.579361" gradientTransform="matrix(-.00000017 -.0781325 .140638 -.0000001 -12.770119 63.595329)" gradientUnits="userSpaceOnUse" r="21.166656" xlink:href="#a"/><radialGradient id="e" cx="450.908936" cy="189.579361" gradientTransform="matrix(.00000017 .0781325 -.140638 .0000001 44.52315 -7.527483)" gradientUnits="userSpaceOnUse" r="21.166656" xlink:href="#a"/><linearGradient id="f" gradientTransform="matrix(.0133601 0 0 .062506 12.465386 13.438784)" gradientUnits="userSpaceOnUse" x1="255.323059" x2="255.323044" y1="233.5" y2="254.666656"><stop offset="0" stop-opacity=".27451"/><stop offset="1" stop-opacity="0"/></linearGradient><linearGradient id="g" gradientUnits="userSpaceOnUse" x1="254" x2="254" y1="-168.666672" y2="233.5"><stop offset="0" stop-color="#ba68c8"/><stop offset="1" stop-color="#ab47bc"/></linearGradient><linearGradient id="h" gradientUnits="userSpaceOnUse" x1="16.538" x2="15.87648" y1="28.03386419623" y2="2.89610343548"><stop offset="0" stop-color="#e0e0e0"/><stop offset="1" stop-color="#eee"/></linearGradient><path d="m18.191406 28.035156h2.648438v-1.324218h-2.648438zm0 0" fill="url(#b)"/><path d="m13.5625 28.035156h-2.648438v1.320313h2.648438zm0 0" fill="url(#c)"/><path d="m13.5625 28.035156h-2.648438v-1.324218h2.648438zm0 0" fill="url(#d)"/><path d="m18.191406 28.035156h2.648438v1.320313h-2.648438zm0 0" fill="url(#e)"/><path d="m13.5625 27.703125h4.628906v1.652344h-4.628906zm0 0" fill="url(#f)"/><path d="m253.975747-168.691922c111.051895 0 201.105795 90.0539 201.105795 201.105795s-90.0539 201.105796-201.105795 201.105796c-111.051896 0-201.043302-90.053901-201.043302-201.105796s89.991406-201.105795 201.043302-201.105795zm0 0" fill="url(#g)" stroke="#333" stroke-linecap="round" stroke-width="3" transform="matrix(.062506 0 0 .062506 0 13.438783)"/><path d="m20.601562 8.160156-1.421874.820313c-2.117188-1.078125-4.71875-1.089844-6.941407.191406-1.496093.863281-2.570312 2.171875-3.148437 3.65625h.296875c.617187-1.210937 1.582031-2.261719 2.851562-2.996094 2.222657-1.28125 4.824219-1.265625 6.941407-.1875l1.964843-1.136719c-.175781-.121093-.355469-.238281-.542969-.347656zm-15.554687 5.660156c-.105469.183594-.125.414063-.019531.625l2.644531 5.292969c.113281.226563.34375.367188.597656.367188.246094-.003907.472657-.144531.585938-.367188l2.644531-5.292969c.109375-.210937.085938-.441406-.015625-.625l-2.628906 5.257813c-.113281.222656-.339844.363281-.585938.363281-.253906.003906-.484375-.140625-.597656-.363281zm15.542969 3.964844-.015625.039063c-.21875.4375.097656.953125.589843.953125h1.203126c.109374-.214844.207031-.433594.296874-.660156h-1.5c-.253906 0-.460937-.136719-.574218-.332032zm6.4375 0c-.109375.195313-.316406.332032-.570313.332032h-1.695312c-.652344 2.1875-2.113281 4.140624-4.253907 5.375-3.011718 1.742187-6.574218 1.605468-9.359374-.046876l-.542969.3125c2.851562 1.976563 6.691406 2.25 9.902343.398438 2.140626-1.238281 3.601563-3.191406 4.253907-5.378906h1.695312c.488281 0 .808594-.515625.589844-.953125zm0 0" fill-opacity=".235294"/><path d="m15.875 28.035156c-6.960938 0-12.566406-5.605468-12.566406-12.570312 0-.039063 0-.082032 0-.121094.066406 6.902344 5.644531 12.445312 12.566406 12.445312s12.503906-5.542968 12.570312-12.445312v.121094c0 6.964844-5.605468 12.570312-12.570312 12.570312zm0 0" fill-opacity=".196078"/><path d="m15.875 2.894531c-6.960938 0-12.566406 5.605469-12.566406 12.570313v.125c.066406-6.90625 5.644531-12.449219 12.566406-12.449219s12.503906 5.542969 12.570312 12.449219c0-.042969 0-.082032 0-.125 0-6.964844-5.605468-12.570313-12.570312-12.570313zm0 0" fill="#fff" fill-opacity=".392157"/><path d="m15.875 2.800781c-7.011719 0-12.660156 5.652344-12.660156 12.664063 0 7.011718 5.648437 12.664062 12.660156 12.664062 7.015625 0 12.664062-5.652344 12.664062-12.664062 0-7.011719-5.648437-12.664063-12.664062-12.664063zm0 .1875c6.914062 0 12.476562 5.5625 12.476562 12.476563 0 6.914062-5.5625 12.476562-12.476562 12.476562-6.910156 0-12.472656-5.5625-12.472656-12.476562 0-6.914063 5.5625-12.476563 12.472656-12.476563zm0 0" fill="#212121"/><path d="m15.847656 6.195312c-1.5625.007813-3.144531.410157-4.601562 1.25-2.140625 1.234376-3.601563 3.1875-4.253906 5.375h-1.375c-.488282 0-.808594.515626-.589844.957032l2.644531 5.292968c.113281.222657.34375.367188.597656.363282.246094 0 .472657-.140625.585938-.363282l2.644531-5.292968c.21875-.441406-.097656-.957032-.589844-.957032h-1.820312c.578125-1.484374 1.652344-2.792968 3.148437-3.65625 2.222657-1.285156 4.824219-1.269531 6.941407-.191406l1.964843-1.132812c-1.558593-1.078125-3.410156-1.652344-5.296875-1.644532zm7.96875 5.300782c-.253906-.003906-.484375.140625-.597656.363281l-2.644531 5.292969c-.21875.441406.097656.957031.589843.957031h1.5c-.582031 1.488281-1.652343 2.792969-3.148437 3.65625-2.222656 1.285156-4.824219 1.269531-6.941406.191406l-1.96875 1.132813c2.851562 1.972656 6.691406 2.25 9.902343.394531 2.140626-1.234375 3.601563-3.1875 4.253907-5.375h1.695312c.488281 0 .808594-.515625.589844-.957031l-2.644531-5.292969c-.113282-.222656-.339844-.363281-.585938-.363281zm0 0" fill="url(#h)"/><path d="m15.847656 6.195312c-1.5625.007813-3.144531.410157-4.601562 1.25-2.140625 1.234376-3.601563 3.1875-4.253906 5.375h-1.375c-.429688 0-.726563.398438-.648438.789063.058594-.292969.316406-.53125.648438-.53125h1.375c.652343-2.1875 2.113281-4.140625 4.253906-5.378906 1.457031-.839844 3.039062-1.242188 4.601562-1.246094 1.804688-.007813 3.578125.515625 5.09375 1.503906l.203125-.117187c-1.558593-1.078125-3.410156-1.652344-5.296875-1.644532zm7.96875 5.300782c-.253906-.003906-.484375.140625-.597656.363281l-2.644531 5.292969c-.070313.140625-.085938.289062-.058594.421875.011719-.054688.03125-.109375.058594-.164063l2.644531-5.292968c.113281-.226563.34375-.367188.597656-.367188.246094.003906.472656.144531.585938.367188l2.644531 5.292968c.027344.054688.046875.109375.058594.164063.027343-.132813.011719-.28125-.058594-.421875l-2.644531-5.292969c-.113282-.222656-.339844-.363281-.585938-.363281zm-14.621094 1.324218c-.035156.085938-.070312.171876-.105468.257813h1.820312c.335938 0 .589844.238281.648438.53125.078125-.390625-.21875-.789063-.648438-.789063zm13.363282 5.542969c-.601563 1.382813-1.632813 2.589844-3.042969 3.402344-2.222656 1.285156-4.824219 1.269531-6.941406.191406l-1.96875 1.132813c.070312.046875.136719.09375.207031.136718l1.761719-1.015624c2.117187 1.078124 4.71875 1.09375 6.941406-.1875 1.496094-.863282 2.566406-2.171876 3.148437-3.660157zm0 0" fill="#fff"/><path d="m958.254998 374.609916c-94.479171.472395-190.139333 24.800782-278.24116 75.583337-129.436465 74.638545-217.774491 192.73751-257.219545 325.00835h-83.141671c-29.524741 0-48.892971 31.178127-35.665887 57.868493l159.905998 320.048194c6.84974 13.463282 20.785417 22.202605 36.138283 21.966407 14.880469 0 28.579949-8.503125 35.429689-21.966407l159.905998-320.048194c13.227084-26.690366-5.904948-57.868493-35.665887-57.868493h-110.068235c34.957293-89.755213 99.911724-168.881519 190.375531-221.081261 134.396621-77.709119 291.704442-76.764327 419.72372-11.573699l118.807558-68.497399c-94.242974-65.190629-206.200792-99.911724-320.284392-99.439328zm481.843776 320.520589c-15.352866-.236198-29.288544 8.503126-36.138284 21.966408l-159.905998 320.048194c-13.227084 26.690366 5.904949 57.868492 35.665888 57.868492h90.700005c-35.193492 89.991411-99.911724 168.88152-190.375531 221.081262-134.396622 77.709119-291.704443 76.764327-419.72372 11.573698l-119.043757 68.4974c172.424489 119.279954 404.607053 136.050007 598.761751 23.855991 129.436465-74.638546 217.77449-192.73751 257.219544-325.008351h102.509902c29.524741 0 48.892971-31.178126 35.665887-57.868492l-159.905998-320.048194c-6.84974-13.463282-20.54922-21.966408-35.429689-21.966408zm0 0" fill="none" stroke="#212121" stroke-linecap="round" stroke-linejoin="round" stroke-width="11.338583" transform="scale(.016538)"/></svg>

<?xml version="1.0" encoding="UTF-8"?>
<svg xmlns="http://www.w3.org/2000/svg" xmlns:xlink="http://www.w3.org/1999/xlink" width="32px" height="32px" viewBox="0 0 32 32" version="1.1">
<defs>
<radialGradient id="radial0" gradientUnits="userSpaceOnUse" cx="450.908936" cy="189.579361" fx="450.908936" fy="189.579361" r="21.166656" gradientTransform="matrix(0.00000017417,-0.0781325,-0.140638,-0.000000101539,44.523152,63.595329)">
<stop offset="0" style="stop-color:rgb(0%,0%,0%);stop-opacity:0.313726;"/>
<stop offset="0.222222" style="stop-color:rgb(0%,0%,0%);stop-opacity:0.27451;"/>
<stop offset="1" style="stop-color:rgb(0%,0%,0%);stop-opacity:0;"/>
</radialGradient>
<radialGradient id="radial1" gradientUnits="userSpaceOnUse" cx="450.908936" cy="189.579361" fx="450.908936" fy="189.579361" r="21.166656" gradientTransform="matrix(-0.00000017417,0.0781325,0.140638,0.000000101539,-12.770119,-7.527482)">
<stop offset="0" style="stop-color:rgb(0%,0%,0%);stop-opacity:0.313726;"/>
<stop offset="0.222222" style="stop-color:rgb(0%,0%,0%);stop-opacity:0.27451;"/>
<stop offset="1" style="stop-color:rgb(0%,0%,0%);stop-opacity:0;"/>
</radialGradient>
<radialGradient id="radial2" gradientUnits="userSpaceOnUse" cx="450.908936" cy="189.579361" fx="450.908936" fy="189.579361" r="21.166656" gradientTransform="matrix(-0.00000017417,-0.0781325,0.140638,-0.000000101539,-12.770119,63.595329)">
<stop offset="0" style="stop-color:rgb(0%,0%,0%);stop-opacity:0.313726;"/>
<stop offset="0.222222" style="stop-color:rgb(0%,0%,0%);stop-opacity:0.27451;"/>
<stop offset="1" style="stop-color:rgb(0%,0%,0%);stop-opacity:0;"/>
</radialGradient>
<radialGradient id="radial3" gradientUnits="userSpaceOnUse" cx="450.908936" cy="189.579361" fx="450.908936" fy="189.579361" r="21.166656" gradientTransform="matrix(0.00000017417,0.0781325,-0.140638,0.000000101539,44.52315,-7.527483)">
<stop offset="0" style="stop-color:rgb(0%,0%,0%);stop-opacity:0.313726;"/>
<stop offset="0.222222" style="stop-color:rgb(0%,0%,0%);stop-opacity:0.27451;"/>
<stop offset="1" style="stop-color:rgb(0%,0%,0%);stop-opacity:0;"/>
</radialGradient>
<linearGradient id="linear0" gradientUnits="userSpaceOnUse" x1="255.323059" y1="233.5" x2="255.323044" y2="254.666656" gradientTransform="matrix(0.0133601,0,0,0.062506,12.465386,13.438784)">
<stop offset="0" style="stop-color:rgb(0%,0%,0%);stop-opacity:0.27451;"/>
<stop offset="1" style="stop-color:rgb(0%,0%,0%);stop-opacity:0;"/>
</linearGradient>
<linearGradient id="linear1" gradientUnits="userSpaceOnUse" x1="254" y1="-168.666672" x2="254" y2="233.5" >
<stop offset="0" style="stop-color:rgb(72.941178%,40.784314%,78.431374%);stop-opacity:1;"/>
<stop offset="1" style="stop-color:rgb(67.058825%,27.843139%,73.725492%);stop-opacity:1;"/>
</linearGradient>
<linearGradient id="linear2" gradientUnits="userSpaceOnUse" x1="1000" y1="1695.118164" x2="960" y2="175.118118" gradientTransform="matrix(0.016538,0,0,0.016538,0,0)">
<stop offset="0" style="stop-color:rgb(87.843138%,87.843138%,87.843138%);stop-opacity:1;"/>
<stop offset="1" style="stop-color:rgb(93.333334%,93.333334%,93.333334%);stop-opacity:1;"/>
</linearGradient>
</defs>
<g id="surface1">
<path style=" stroke:none;fill-rule:nonzero;fill:url(#radial0);" d="M 18.191406 28.035156 L 20.839844 28.035156 L 20.839844 26.710938 L 18.191406 26.710938 Z M 18.191406 28.035156 "/>
<path style=" stroke:none;fill-rule:nonzero;fill:url(#radial1);" d="M 13.5625 28.035156 L 10.914062 28.035156 L 10.914062 29.355469 L 13.5625 29.355469 Z M 13.5625 28.035156 "/>
<path style=" stroke:none;fill-rule:nonzero;fill:url(#radial2);" d="M 13.5625 28.035156 L 10.914062 28.035156 L 10.914062 26.710938 L 13.5625 26.710938 Z M 13.5625 28.035156 "/>
<path style=" stroke:none;fill-rule:nonzero;fill:url(#radial3);" d="M 18.191406 28.035156 L 20.839844 28.035156 L 20.839844 29.355469 L 18.191406 29.355469 Z M 18.191406 28.035156 "/>
<path style=" stroke:none;fill-rule:nonzero;fill:url(#linear0);" d="M 13.5625 27.703125 L 18.191406 27.703125 L 18.191406 29.355469 L 13.5625 29.355469 Z M 13.5625 27.703125 "/>
<path style="fill-rule:nonzero;fill:url(#linear1);stroke-width:3;stroke-linecap:round;stroke-linejoin:miter;stroke:rgb(20%,20%,20%);stroke-opacity:1;stroke-miterlimit:4;" d="M 253.975747 -168.691922 C 365.027642 -168.691922 455.081542 -78.638022 455.081542 32.413873 C 455.081542 143.465768 365.027642 233.519669 253.975747 233.519669 C 142.923851 233.519669 52.932445 143.465768 52.932445 32.413873 C 52.932445 -78.638022 142.923851 -168.691922 253.975747 -168.691922 Z M 253.975747 -168.691922 " transform="matrix(0.062506,0,0,0.062506,0,13.438783)"/>
<path style=" stroke:none;fill-rule:nonzero;fill:rgb(0%,0%,0%);fill-opacity:0.235294;" d="M 20.601562 8.160156 L 19.179688 8.980469 C 17.0625 7.902344 14.460938 7.890625 12.238281 9.171875 C 10.742188 10.035156 9.667969 11.34375 9.089844 12.828125 L 9.386719 12.828125 C 10.003906 11.617188 10.96875 10.566406 12.238281 9.832031 C 14.460938 8.550781 17.0625 8.566406 19.179688 9.644531 L 21.144531 8.507812 C 20.96875 8.386719 20.789062 8.269531 20.601562 8.160156 Z M 5.046875 13.820312 C 4.941406 14.003906 4.921875 14.234375 5.027344 14.445312 L 7.671875 19.738281 C 7.785156 19.964844 8.015625 20.105469 8.269531 20.105469 C 8.515625 20.101562 8.742188 19.960938 8.855469 19.738281 L 11.5 14.445312 C 11.609375 14.234375 11.585938 14.003906 11.484375 13.820312 L 8.855469 19.078125 C 8.742188 19.300781 8.515625 19.441406 8.269531 19.441406 C 8.015625 19.445312 7.785156 19.300781 7.671875 19.078125 Z M 20.589844 17.785156 L 20.574219 17.824219 C 20.355469 18.261719 20.671875 18.777344 21.164062 18.777344 L 22.367188 18.777344 C 22.476562 18.5625 22.574219 18.34375 22.664062 18.117188 L 21.164062 18.117188 C 20.910156 18.117188 20.703125 17.980469 20.589844 17.785156 Z M 27.027344 17.785156 C 26.917969 17.980469 26.710938 18.117188 26.457031 18.117188 L 24.761719 18.117188 C 24.109375 20.304688 22.648438 22.257812 20.507812 23.492188 C 17.496094 25.234375 13.933594 25.097656 11.148438 23.445312 L 10.605469 23.757812 C 13.457031 25.734375 17.296875 26.007812 20.507812 24.15625 C 22.648438 22.917969 24.109375 20.964844 24.761719 18.777344 L 26.457031 18.777344 C 26.945312 18.777344 27.265625 18.261719 27.046875 17.824219 Z M 27.027344 17.785156 "/>
<path style=" stroke:none;fill-rule:nonzero;fill:rgb(0%,0%,0%);fill-opacity:0.196078;" d="M 15.875 28.035156 C 8.914062 28.035156 3.308594 22.429688 3.308594 15.464844 C 3.308594 15.425781 3.308594 15.382812 3.308594 15.34375 C 3.375 22.246094 8.953125 27.789062 15.875 27.789062 C 22.796875 27.789062 28.378906 22.246094 28.445312 15.34375 C 28.445312 15.382812 28.445312 15.425781 28.445312 15.464844 C 28.445312 22.429688 22.839844 28.035156 15.875 28.035156 Z M 15.875 28.035156 "/>
<path style=" stroke:none;fill-rule:nonzero;fill:rgb(100%,100%,100%);fill-opacity:0.392157;" d="M 15.875 2.894531 C 8.914062 2.894531 3.308594 8.5 3.308594 15.464844 C 3.308594 15.507812 3.308594 15.546875 3.308594 15.589844 C 3.375 8.683594 8.953125 3.140625 15.875 3.140625 C 22.796875 3.140625 28.378906 8.683594 28.445312 15.589844 C 28.445312 15.546875 28.445312 15.507812 28.445312 15.464844 C 28.445312 8.5 22.839844 2.894531 15.875 2.894531 Z M 15.875 2.894531 "/>
<path style=" stroke:none;fill-rule:nonzero;fill:rgb(12.941177%,12.941177%,12.941177%);fill-opacity:1;" d="M 15.875 2.800781 C 8.863281 2.800781 3.214844 8.453125 3.214844 15.464844 C 3.214844 22.476562 8.863281 28.128906 15.875 28.128906 C 22.890625 28.128906 28.539062 22.476562 28.539062 15.464844 C 28.539062 8.453125 22.890625 2.800781 15.875 2.800781 Z M 15.875 2.988281 C 22.789062 2.988281 28.351562 8.550781 28.351562 15.464844 C 28.351562 22.378906 22.789062 27.941406 15.875 27.941406 C 8.964844 27.941406 3.402344 22.378906 3.402344 15.464844 C 3.402344 8.550781 8.964844 2.988281 15.875 2.988281 Z M 15.875 2.988281 "/>
<path style=" stroke:none;fill-rule:nonzero;fill:url(#linear2);" d="M 15.847656 6.195312 C 14.285156 6.203125 12.703125 6.605469 11.246094 7.445312 C 9.105469 8.679688 7.644531 10.632812 6.992188 12.820312 L 5.617188 12.820312 C 5.128906 12.820312 4.808594 13.335938 5.027344 13.777344 L 7.671875 19.070312 C 7.785156 19.292969 8.015625 19.4375 8.269531 19.433594 C 8.515625 19.433594 8.742188 19.292969 8.855469 19.070312 L 11.5 13.777344 C 11.71875 13.335938 11.402344 12.820312 10.910156 12.820312 L 9.089844 12.820312 C 9.667969 11.335938 10.742188 10.027344 12.238281 9.164062 C 14.460938 7.878906 17.0625 7.894531 19.179688 8.972656 L 21.144531 7.839844 C 19.585938 6.761719 17.734375 6.1875 15.847656 6.195312 Z M 23.816406 11.496094 C 23.5625 11.492188 23.332031 11.636719 23.21875 11.859375 L 20.574219 17.152344 C 20.355469 17.59375 20.671875 18.109375 21.164062 18.109375 L 22.664062 18.109375 C 22.082031 19.597656 21.011719 20.902344 19.515625 21.765625 C 17.292969 23.050781 14.691406 23.035156 12.574219 21.957031 L 10.605469 23.089844 C 13.457031 25.0625 17.296875 25.339844 20.507812 23.484375 C 22.648438 22.25 24.109375 20.296875 24.761719 18.109375 L 26.457031 18.109375 C 26.945312 18.109375 27.265625 17.59375 27.046875 17.152344 L 24.402344 11.859375 C 24.289062 11.636719 24.0625 11.496094 23.816406 11.496094 Z M 23.816406 11.496094 "/>
<path style=" stroke:none;fill-rule:nonzero;fill:rgb(100%,100%,100%);fill-opacity:1;" d="M 15.847656 6.195312 C 14.285156 6.203125 12.703125 6.605469 11.246094 7.445312 C 9.105469 8.679688 7.644531 10.632812 6.992188 12.820312 L 5.617188 12.820312 C 5.1875 12.820312 4.890625 13.21875 4.96875 13.609375 C 5.027344 13.316406 5.285156 13.078125 5.617188 13.078125 L 6.992188 13.078125 C 7.644531 10.890625 9.105469 8.9375 11.246094 7.699219 C 12.703125 6.859375 14.285156 6.457031 15.847656 6.453125 C 17.652344 6.445312 19.425781 6.96875 20.941406 7.957031 L 21.144531 7.839844 C 19.585938 6.761719 17.734375 6.1875 15.847656 6.195312 Z M 23.816406 11.496094 C 23.5625 11.492188 23.332031 11.636719 23.21875 11.859375 L 20.574219 17.152344 C 20.503906 17.292969 20.488281 17.441406 20.515625 17.574219 C 20.527344 17.519531 20.546875 17.464844 20.574219 17.410156 L 23.21875 12.117188 C 23.332031 11.890625 23.5625 11.75 23.816406 11.75 C 24.0625 11.753906 24.289062 11.894531 24.402344 12.117188 L 27.046875 17.410156 C 27.074219 17.464844 27.09375 17.519531 27.105469 17.574219 C 27.132812 17.441406 27.117188 17.292969 27.046875 17.152344 L 24.402344 11.859375 C 24.289062 11.636719 24.0625 11.496094 23.816406 11.496094 Z M 9.195312 12.820312 C 9.160156 12.90625 9.125 12.992188 9.089844 13.078125 L 10.910156 13.078125 C 11.246094 13.078125 11.5 13.316406 11.558594 13.609375 C 11.636719 13.21875 11.339844 12.820312 10.910156 12.820312 Z M 22.558594 18.363281 C 21.957031 19.746094 20.925781 20.953125 19.515625 21.765625 C 17.292969 23.050781 14.691406 23.035156 12.574219 21.957031 L 10.605469 23.089844 C 10.675781 23.136719 10.742188 23.183594 10.8125 23.226562 L 12.574219 22.210938 C 14.691406 23.289062 17.292969 23.304688 19.515625 22.023438 C 21.011719 21.160156 22.082031 19.851562 22.664062 18.363281 Z M 22.558594 18.363281 "/>
<path style="fill:none;stroke-width:11.338583;stroke-linecap:round;stroke-linejoin:round;stroke:rgb(12.941177%,12.941177%,12.941177%);stroke-opacity:1;stroke-miterlimit:4;" d="M 958.254998 374.609916 C 863.775827 375.082311 768.115665 399.410698 680.013838 450.193253 C 550.577373 524.831798 462.239347 642.930763 422.794293 775.201603 L 339.652622 775.201603 C 310.127881 775.201603 290.759651 806.37973 303.986735 833.070096 L 463.892733 1153.11829 C 470.742473 1166.581572 484.67815 1175.320895 500.031016 1175.084697 C 514.911485 1175.084697 528.610965 1166.581572 535.460705 1153.11829 L 695.366703 833.070096 C 708.593787 806.37973 689.461755 775.201603 659.700816 775.201603 L 549.632581 775.201603 C 584.589874 685.44639 649.544305 606.320084 740.008112 554.120342 C 874.404733 476.411223 1031.712554 477.356015 1159.731832 542.546643 L 1278.53939 474.049244 C 1184.296416 408.858615 1072.338598 374.13752 958.254998 374.609916 Z M 1440.098774 695.130505 C 1424.745908 694.894307 1410.81023 703.633631 1403.96049 717.096913 L 1244.054492 1037.145107 C 1230.827408 1063.835473 1249.959441 1095.013599 1279.72038 1095.013599 L 1370.420385 1095.013599 C 1335.226893 1185.00501 1270.508661 1263.895119 1180.044854 1316.094861 C 1045.648232 1393.80398 888.340411 1392.859188 760.321134 1327.668559 L 641.277377 1396.165959 C 813.701866 1515.445913 1045.88443 1532.215966 1240.039128 1420.02195 C 1369.475593 1345.383404 1457.813618 1227.28444 1497.258672 1095.013599 L 1599.768574 1095.013599 C 1629.293315 1095.013599 1648.661545 1063.835473 1635.434461 1037.145107 L 1475.528463 717.096913 C 1468.678723 703.633631 1454.979243 695.130505 1440.098774 695.130505 Z M 1440.098774 695.130505 " transform="matrix(0.016538,0,0,0.016538,0,0)"/>
</g>
</svg>
